app/dist/common/images/goodwin-plc.svg

<svg fill="none" height="18" viewBox="0 0 18 18" width="18" xmlns="http://www.w3.org/2000/svg"><path d="m0 0h18v18h-18z" fill="#f0f3fa"/><path d="m4 8.91126c0-2.8538 1.84553-4.91126 5.06187-4.91126 1.10693 0 1.74033.16404 2.51793.94673l.3491-.94673h.96v3h-.8379c-.7209-1.5013-1.1648-2-2.79703-2-2.66029 0-3.5873 2.0048-3.5873 4 0 1.8504.73916 4 3.32535 4 2.34768 0 2.23018-1.519 2.23018-3.14207l-1.1111-.10354v-.75439h3.8889v.75439l-1 .0888v4.15681h-1.2222l-.1427-1.3905h-.0522c-.6434 1.071-1.5618 1.3905-2.83525 1.3905-3.3275 0-4.74765-2.2855-4.74765-5.08874z" fill="#2b2b2a"/></svg>

<!-- by TradingView --><svg width="18" height="18" viewBox="0 0 18 18" fill="none" xmlns="http://www.w3.org/2000/svg">
<rect width="18" height="18" fill="#F0F3FA"/>
<path d="M4 8.91126C4 6.05746 5.84553 4 9.06187 4C10.1688 4 10.8022 4.16404 11.5798 4.94673L11.9289 4H12.8889V7H12.051C11.3301 5.4987 10.8862 5 9.25397 5C6.59368 5 5.66667 7.0048 5.66667 9C5.66667 10.8504 6.40583 13 8.99202 13C11.3397 13 11.2222 11.481 11.2222 9.85793L10.1111 9.75439V9H14V9.75439L13 9.84319V14H11.7778L11.6351 12.6095H11.5829C10.9395 13.6805 10.0211 14 8.74765 14C5.42015 14 4 11.7145 4 8.91126Z" fill="#2B2B2A"/>
</svg>
